svg/300/rounded/arrow_circle_right.svg

<svg xmlns="http://www.w3.org/2000/svg" width="48" height="48" viewBox="0 -960 960 960"><path d="M529.694-457.308 464-391.615q-6.692 6.692-6.499 15.615.192 8.923 6.884 15.615t15.871 6.692q9.18 0 15.744-6.692l99.384-99.384q8.615-8.616 8.615-20.231 0-11.615-8.615-20.231L495.615-600q-6.692-6.692-15.615-6.692T464.385-600q-6.692 6.693-6.692 15.872t6.692 15.743l65.309 65.693H360q-9.904 0-16.298 6.398-6.394 6.398-6.394 16.307 0 9.91 6.394 16.294 6.394 6.385 16.298 6.385h169.694Zm-49.627 357.307q-78.221 0-147.397-29.92-69.176-29.92-120.989-81.71-51.814-51.791-81.747-120.936-29.933-69.146-29.933-147.366 0-78.836 29.92-148.204 29.92-69.369 81.71-120.682 51.791-51.314 120.936-81.247 69.146-29.933 147.366-29.933 78.836 0 148.204 29.92 69.369 29.92 120.682 81.21 51.314 51.291 81.247 120.629 29.933 69.337 29.933 148.173 0 78.221-29.92 147.397-29.92 69.176-81.21 120.989-51.291 51.814-120.629 81.747-69.337 29.933-148.173 29.933ZM480-145.385q139.692 0 237.154-97.769Q814.615-340.923 814.615-480q0-139.692-97.461-237.154Q619.692-814.615 480-814.615q-139.077 0-236.846 97.461Q145.385-619.692 145.385-480q0 139.077 97.769 236.846T480-145.385ZM480-480Z"/></svg>

<svg xmlns="http://www.w3.org/2000/svg" width="48" height="48" viewBox="0 -960 960 960"><path d="M529.69-457.31 464-391.61q-6.69 6.69-6.5 15.61.19 8.92 6.89 15.61 6.69 6.7 15.87 6.7t15.74-6.7l99.38-99.38Q604-468.38 604-480q0-11.62-8.62-20.23L495.61-600q-6.69-6.69-15.61-6.69-8.92 0-15.61 6.69-6.7 6.69-6.7 15.87t6.7 15.74l65.3 65.7H360q-9.9 0-16.3 6.4-6.39 6.39-6.39 16.3t6.39 16.3q6.4 6.38 16.3 6.38h169.69ZM480.07-100q-78.22 0-147.4-29.92t-120.99-81.71q-51.81-51.79-81.75-120.94Q100-401.71 100-479.93q0-78.84 29.92-148.21t81.71-120.68q51.79-51.31 120.94-81.25Q401.71-860 479.93-860q78.84 0 148.21 29.92t120.68 81.21q51.31 51.29 81.25 120.63Q860-558.9 860-480.07q0 78.22-29.92 147.4t-81.21 120.99q-51.29 51.81-120.63 81.75Q558.9-100 480.07-100Zm-.07-45.39q139.69 0 237.15-97.76 97.46-97.77 97.46-236.85 0-139.69-97.46-237.15-97.46-97.46-237.15-97.46-139.08 0-236.85 97.46-97.76 97.46-97.76 237.15 0 139.08 97.76 236.85 97.77 97.76 236.85 97.76ZM480-480Z"/></svg>
